X: 24714
T: Macroom Lasses, The
R: reel
M: 4/4
K: Amajor
|:EAAc B2gf|eccB cAFA|EFAc B2gf|eccB cAA2:|
|:aefa e2ce|dBBA BF~F2|aefa eac'a|babc' ~a3b|
c'afa e2ce|dBBA BF~F2|EFAc B2gf|eccB cAA2:|

